X:47
T: Sln chun carraig an ide, S. 97
N: I0546
O: Irland
S: O'SULLIVAN, Donal: Song of the Irish]
R: Abschiedslied]
M: 3/4
L: 1/8
K: Eb
 | E2G2G2 | G2B2B2 | A2B2A2 | G2B2
AA | G2E2E2 | G2B2A2 | F2E2E2 | E2E2
GF | E2G2G2 | G2B2B2 | A2B2A2 | G2B2z2 |
G2E2E2 | GGB2AF | F2E2E2 | E2E2z2 |
E2_d2c2 | e2f2e2 | d2B2AF | G2z4 |
E2_d2c2 | e2fed2 | B2c2d2 | e2z2
fd | d2B2B2 | G2B2B2 | A2c2A2 | G2B2
BA | G2E2E2 | G2B2A2 | F2E2E2 | G2B2
BA | G2E2E2 | G2B2A2 | F2E2E2 | E2E2z2

@@@ Tune index: 7322
